build/svg/cmd/32/ca/italic.svg

<?xml version="1.0" encoding="UTF-8" standalone="no"?>
<svg
   xmlns:dc="http://purl.org/dc/elements/1.1/"
   xmlns:cc="http://creativecommons.org/ns#"
   xmlns:rdf="http://www.w3.org/1999/02/22-rdf-syntax-ns#"
   xmlns:svg="http://www.w3.org/2000/svg"
   xmlns="http://www.w3.org/2000/svg"
   xmlns:sodipodi="http://sodipodi.sourceforge.net/DTD/sodipodi-0.dtd"
   xmlns:inkscape="http://www.inkscape.org/namespaces/inkscape"
   height="32"
   viewBox="0 0 32 32"
   width="32"
   version="1.1"
   id="svg4"
   sodipodi:docname="italic.svg"
   inkscape:export-filename="/home/jupiter007/Libreoffice yaru theme fullcolor/build/cmd/32/ca/italic.png"
   inkscape:export-xdpi="96"
   inkscape:export-ydpi="96"
   inkscape:version="0.92.5 (2060ec1f9f, 2020-04-08)">
  <metadata
     id="metadata10">
    <rdf:RDF>
      <cc:Work
         rdf:about="">
        <dc:format>image/svg+xml</dc:format>
        <dc:type
           rdf:resource="http://purl.org/dc/dcmitype/StillImage" />
      </cc:Work>
    </rdf:RDF>
  </metadata>
  <defs
     id="defs8" />
  <sodipodi:namedview
     pagecolor="#ffffff"
     bordercolor="#666666"
     borderopacity="1"
     objecttolerance="10"
     gridtolerance="10"
     guidetolerance="10"
     inkscape:pageopacity="0"
     inkscape:pageshadow="2"
     inkscape:window-width="1920"
     inkscape:window-height="1011"
     id="namedview6"
     showgrid="true"
     inkscape:zoom="14.75"
     inkscape:cx="4.0272264"
     inkscape:cy="13.60448"
     inkscape:window-x="1920"
     inkscape:window-y="32"
     inkscape:window-maximized="1"
     inkscape:current-layer="svg4">
    <inkscape:grid
       type="xygrid"
       id="grid812" />
  </sodipodi:namedview>
  <path
     style="opacity:0.6;fill:#000000;stroke:#000000;stroke-width:2;stroke-linejoin:round;stroke-miterlimit:4;stroke-dasharray:none"
     inkscape:connector-curvature="0"
     id="path814"
     d="m 18.561543,3.9841011 c -1.74575,0 -3.383033,0.340906 -4.913728,1.0208828 C 12.11712,5.6849591 10.782026,6.6394165 9.6434922,7.8681473 7.2417831,10.505117 6.1000282,14.117767 6,17.906819 c 0,1.479247 0.2024373,2.837002 0.6072489,4.077662 0.4174625,1.240658 1.0119386,2.308753 1.7836101,3.203459 0.7716716,0.894706 1.714729,1.593531 2.82796,2.094567 1.125884,0.489106 2.396801,0.733392 3.813641,0.733392 1.796351,0 3.377341,-0.303939 4.74358,-0.91234 1.378889,-0.620329 2.58856,-1.492445 3.625893,-2.61381 l -1.196898,-1.358243 c -0.06325,-0.119303 -0.20151,-0.178948 -0.416565,-0.178948 -0.189756,0 -0.417865,0.124981 -0.683522,0.375497 -0.265658,0.238588 -0.627074,0.505561 -1.082487,0.803798 -0.455415,0.298234 -1.037055,0.573816 -1.745474,0.824334 -0.70842,0.238594 -1.600136,0.357895 -2.675415,0.357895 C 8.0678896,24.401115 7.5019303,15.157916 11.996215,9.6752258 12.805838,8.720872 13.753846,7.9936849 14.841777,7.4926504 c 1.100582,-0.5129647 2.276699,-0.7715288 3.529084,-0.7715288 0.619869,0 1.165936,0.053982 1.633999,0.1613464 0.468062,0.095436 0.872936,0.2204137 1.214495,0.375497 0.341561,0.1550816 0.630914,0.3226989 0.871272,0.5016396 0.240356,0.167012 0.450678,0.3289563 0.627783,0.4840395 0.189754,0.1550817 0.353685,0.2857321 0.492839,0.3930972 0.139159,0.095436 0.277408,0.1437401 0.416568,0.1437401 0.177103,0 0.323251,-0.036963 0.437102,-0.1085486 0.11385,-0.071585 0.221489,-0.1595891 0.322693,-0.2669542 L 25.525836,7.0966185 C 25.146326,6.6194416 24.723663,6.190522 24.255601,5.8087814 23.800186,5.4151105 23.287675,5.0884823 22.71841,4.8260356 22.161794,4.5516585 21.541648,4.3414043 20.858527,4.1982514 20.17541,4.0551 19.409118,3.9841011 18.561543,3.9841011 Z" />
  <path
     d="m 18.561543,3.9841011 c -1.74575,0 -3.383033,0.340906 -4.913728,1.0208828 C 12.11712,5.6849591 10.782026,6.6394165 9.6434922,7.8681473 7.2417831,10.505117 6.1000282,14.117767 6,17.906819 c 0,1.479247 0.2024373,2.837002 0.6072489,4.077662 0.4174625,1.240658 1.0119386,2.308753 1.7836101,3.203459 0.7716716,0.894706 1.714729,1.593531 2.82796,2.094567 1.125884,0.489106 2.396801,0.733392 3.813641,0.733392 1.796351,0 3.377341,-0.303939 4.74358,-0.91234 1.378889,-0.620329 2.58856,-1.492445 3.625893,-2.61381 l -1.196898,-1.358243 c -0.06325,-0.119303 -0.20151,-0.178948 -0.416565,-0.178948 -0.189756,0 -0.417865,0.124981 -0.683522,0.375497 -0.265658,0.238588 -0.627074,0.505561 -1.082487,0.803798 -0.455415,0.298234 -1.037055,0.573816 -1.745474,0.824334 -0.70842,0.238594 -1.600136,0.357895 -2.675415,0.357895 C 8.0678896,24.401115 7.5019303,15.157916 11.996215,9.6752258 12.805838,8.720872 13.753846,7.9936849 14.841777,7.4926504 c 1.100582,-0.5129647 2.276699,-0.7715288 3.529084,-0.7715288 0.619869,0 1.165936,0.053982 1.633999,0.1613464 0.468062,0.095436 0.872936,0.2204137 1.214495,0.375497 0.341561,0.1550816 0.630914,0.3226989 0.871272,0.5016396 0.240356,0.167012 0.450678,0.3289563 0.627783,0.4840395 0.189754,0.1550817 0.353685,0.2857321 0.492839,0.3930972 0.139159,0.095436 0.277408,0.1437401 0.416568,0.1437401 0.177103,0 0.323251,-0.036963 0.437102,-0.1085486 0.11385,-0.071585 0.221489,-0.1595891 0.322693,-0.2669542 L 25.525836,7.0966185 C 25.146326,6.6194416 24.723663,6.190522 24.255601,5.8087814 23.800186,5.4151105 23.287675,5.0884823 22.71841,4.8260356 22.161794,4.5516585 21.541648,4.3414043 20.858527,4.1982514 20.17541,4.0551 19.409118,3.9841011 18.561543,3.9841011 Z"
     id="path2"
     inkscape:connector-curvature="0"
     style="fill:#ffffff;stroke-width:1.50198698" />
</svg>

<svg xmlns="http://www.w3.org/2000/svg" height="32" width="32"><path d="M18.562 3.984c-1.746 0-3.383.341-4.914 1.021a12.102 12.102 0 00-4.005 2.863C7.242 10.505 6.1 14.118 6 17.907c0 1.48.202 2.837.607 4.077.418 1.241 1.012 2.31 1.784 3.204a8.041 8.041 0 002.828 2.095c1.126.489 2.397.733 3.813.733 1.797 0 3.378-.304 4.744-.912a11.1 11.1 0 003.626-2.614l-1.197-1.358c-.063-.12-.201-.18-.417-.18-.19 0-.417.126-.683.376a9.2 9.2 0 01-1.083.804c-.455.298-1.037.574-1.745.824-.708.239-1.6.358-2.675.358-7.534-.913-8.1-10.156-3.606-15.639a8.2 8.2 0 012.846-2.182 8.252 8.252 0 013.529-.772c.62 0 1.166.054 1.634.161.468.096.873.22 1.214.376.342.155.631.323.872.502.24.167.45.329.627.484.19.155.354.285.493.393.14.095.278.143.417.143a.81.81 0 00.437-.108c.114-.072.221-.16.323-.267l1.138-1.308a8.41 8.41 0 00-1.27-1.288 6.487 6.487 0 00-1.538-.983 7.818 7.818 0 00-1.86-.628 11.245 11.245 0 00-2.296-.214z" opacity=".6" stroke="#000" stroke-width="2" stroke-linejoin="round"/><path d="M18.562 3.984c-1.746 0-3.383.341-4.914 1.021a12.102 12.102 0 00-4.005 2.863C7.242 10.505 6.1 14.118 6 17.907c0 1.48.202 2.837.607 4.077.418 1.241 1.012 2.31 1.784 3.204a8.041 8.041 0 002.828 2.095c1.126.489 2.397.733 3.813.733 1.797 0 3.378-.304 4.744-.912a11.1 11.1 0 003.626-2.614l-1.197-1.358c-.063-.12-.201-.18-.417-.18-.19 0-.417.126-.683.376a9.2 9.2 0 01-1.083.804c-.455.298-1.037.574-1.745.824-.708.239-1.6.358-2.675.358-7.534-.913-8.1-10.156-3.606-15.639a8.2 8.2 0 012.846-2.182 8.252 8.252 0 013.529-.772c.62 0 1.166.054 1.634.161.468.096.873.22 1.214.376.342.155.631.323.872.502.24.167.45.329.627.484.19.155.354.285.493.393.14.095.278.143.417.143a.81.81 0 00.437-.108c.114-.072.221-.16.323-.267l1.138-1.308a8.41 8.41 0 00-1.27-1.288 6.487 6.487 0 00-1.538-.983 7.818 7.818 0 00-1.86-.628 11.245 11.245 0 00-2.296-.214z" fill="#fff"/></svg>
